X: 383
T: The Blood-Red Rose
M:C
L:1/8
B:O'Neill's 383
N:"Slow."
N:"collected by J. O'Neill"
Z:Transcribed by Chris Falt, cfalt@trytel.com
K:F
A>^c|d2G>A G2(c>B)|(A>B)(G>A) F2(f>g)|(a>g)(fd) (fd)(cA)|AGG>A B2A>^c|
d2G>A G2c>B|(A>B)(G>A) F2f>g|(a>g)(fd) (fd)(cA)|G2F>F F2||
(A>G)|F2f>g f3g|(a>g)(fd) c2(f>e)|d2g>a g3a|(ba)(gf)d2(f>g)|
a2b>a g2a>g|f>gfd c>dfg|(a>g)(fd) (fd)(cA)|G2F>F F2||


